!!!COM: Palestrina, Giovanni Perluigi da
!!!OPR: Missa Gabriel Archangelus
!!!OMD: Sanctus
!!!OTL: First Section
**kern	**kern	**kern	**kern
*Ibass	*Itenor	*Icalto	*Icant
!Bassus	!Tenor	!Altus	!Cantus
*clefF4	*clefGv2	*clefG2	*clefG2
*k[b-]	*k[b-]	*k[b-]	*k[b-]
*D:aeo	*D:aeo	*D:aeo	*D:aeo
*M4/2	*M4/2	*M4/2	*M4/2
=1	=1	=1	=1
0r	0r	0g	0r
=2	=2	=2	=2
0r	0r	1d	1r
.	.	[1g	[1dd
=3	=3	=3	=3
0r	0r	2g]	1dd]
.	.	2f	.
.	.	2.b-	1g
.	.	4a	.
=4	=4	=4	=4
0r	0r	2g	1.dd
.	.	2f	.
.	.	1e	.
.	.	.	2cc#
=5	=5	=5	=5
0G	0r	2d	2.dd
.	.	2.b-	.
.	.	.	4cc
.	.	.	1b-
.	.	4a	.
.	.	[2g	.
=6	=6	=6	=6
1D	1r	2g]	2a
.	.	2f#	2.dd
[1G	[1d	1g	.
.	.	.	4cc
.	.	.	[2b-
=7	=7	=7	=7
2G]	1d]	1r	2b-]
2F	.	.	2a
2.B-	1G	[1d	2.dd
4A	.	.	4cc
=8	=8	=8	=8
2G	1.d	1d]	2b-
2F	.	.	2a
1E	.	2G	2.g
.	2c#	[2g	.
.	.	.	4a
=9	=9	=9	=9
1D	2.d	2g]	2b-
.	.	2f	1a
.	4c	.	.
2r	1B-	1d	.
[2d	.	.	2g
=10	=10	=10	=10
2d]	2A	1e	1a
2c	1a	.	.
1B-	.	1d	2r
.	2g	.	[2dd
=11	=11	=11	=11
1A	2f	2r	2dd]
.	2e	1a	2cc
1r	1d	.	2.ff
.	.	2f	.
.	.	.	4ee
=12	=12	=12	=12
1r	0G	2.b-	2dd
.	.	.	2cc
.	.	4a	.
2r	.	2g	1b-
[2d	.	2f	.
=13	=13	=13	=13
2d]	1A	1e	0a
2c	.	.	.
2f	1r	2.d	.
2e	.	.	.
.	.	4e	.
=14	=14	=14	=14
2d	1r	2f	2r
2c	.	2e	1a
1B-	1d	2f	.
.	.	2d	2g
=15	=15	=15	=15
2A	2c	2e	2.cc
4F	1f	2A	.
4G	.	.	4b-
4A	.	1r	2a
4B-	.	.	.
2c	[2e	.	2g
=16	=16	=16	=16
1d	4e]	1r	1f
.	4d	.	.
.	1d	.	.
1A	.	2r	1e
.	2c	[2a	.
=17	=17	=17	=17
0r	1B-	2a]	2d
.	.	2g	1dd
.	1A	2f	.
.	.	2e	2cc
=18	=18	=18	=18
2r	2.a	1.d	1.ff
1d	.	.	.
.	4g	.	.
.	2f	.	.
2c	[2g	2e	2ee
=19	=19	=19	=19
2B-	4g]	1f	2dd
.	4f	.	.
2A	1f	.	2cc
1G	.	1g	1b-
.	2e	.	.
=20	=20	=20	=20
1F	0f	2c	1a
.	.	1d	.
2r	.	.	2r
[2F	.	4c	[2cc
.	.	4B-	.
=21	=21	=21	=21
2F]	0f	0A	2cc]
2F	.	.	2cc
1F	.	.	1cc
=22	=22	=22	=22
1B-	0f	1r	1dd
2A	.	2r	2cc
[2d	.	[2f	[2ff
=23	=23	=23	=23
2d]	0r	2f]	4ff]
.	.	.	4ee
2.B-	.	2f	2.dd
.	.	1f	.
4c	.	.	4cc
2d	.	.	2a
=24	=24	=24	=24
1G	0r	1g	2b-
.	.	.	2b-
1d	.	2f	2a
.	.	[2b-	[2dd
=25	=25	=25	=25
2.G	0r	4b-]	4dd]
.	.	4a	4cc
.	.	2.g	2.b-
4A	.	.	.
1B-	.	.	.
.	.	4f	4a
.	.	2d	4f
.	.	.	4g
=26	=26	=26	=26
2.A	1.c	2e	1a
.	.	1f	.
4B-	.	.	.
1c	.	.	[1g
.	2c	4e	.
.	.	4d	.
=27	=27	=27	=27
0r	1c	2e	2g]
.	.	2e	2g
.	1d	[1f	2f
.	.	.	[2ff
=28	=28	=28	=28
1.F	2c	1f]	4ff]
.	.	.	4ee
.	2.f	.	2dd
.	.	1r	2cc
.	4e	.	.
2F	[2d	.	2dd
=29	=29	=29	=29
1F	4d]	1f	1a
.	4c	.	.
.	2A	.	.
1G	2B-	2d	1r
.	2B-	2e	.
=30	=30	=30	=30
2F	2A	1f	0r
2.B-	2.d	.	.
.	.	2B-	.
4A	4c	.	.
[2G	[2e-	[2b-	.
=31	=31	=31	=31
4G]	4e-]	2b-]	0r
4F	4d	.	.
2D	1d	2a	.
2E-	.	1g	.
2E-	2c	.	.
=32	=32	=32	=32
[0D	[0d	2r	1.a
.	.	1f	.
.	.	2f	2a
=33	=33	=33	=33
1D]	1d]	1f	1a
1r	1r	1g	1b-
=34	=34	=34	=34
1.A	1.c	2e	2a
.	.	2.a	2.cc
.	.	4g	4b-
2A	2c	2f	4a
.	.	.	4g
=35	=35	=35	=35
1A	1c	2e	1a
.	.	1f	.
1B-	1d	.	2f
.	.	4e	2g
.	.	4d	.
=36	=36	=36	=36
2A	2c	2e	1a
2.d	2.f	2d	.
.	.	2f	1r
4c	4e	.	.
[2B-	[2d	[2g	.
=37	=37	=37	=37
4B-]	4d]	4g]	0r
4A	4c	4f	.
2F	2A	1f	.
2G	2B-	.	.
2G	2B-	2e	.
=38	=38	=38	=38
[0F	2A	0f	1.cc
.	1A	.	.
.	2A	.	2cc
=39	=39	=39	=39
1F]	1A	0f	1cc
1r	1B-	.	1dd
=40	=40	=40	=40
1F	1A	0f	2cc
.	.	.	2.ff
2.D	[1d	.	.
.	.	.	4ee
.	.	.	[2dd
4E	.	.	.
=41	=41	=41	=41
1F	2d]	2r	4dd]
.	.	.	4cc
.	2c	2f	2a
1G	1B-	2.d	2b-
.	.	.	2b-
.	.	4e	.
=42	=42	=42	=42
[0F	[0c	[0f	[0a
=43	=43	=43	=43
0F]	0c]	0f]	0a]
*-	*-	*-	*-
!!!CDT: 1525/^1526/-1594/2/2
!!!OCY: Italia
!!!AGN: Mass (Parody)
!!!AST: renaissance, vocal
!!!ASW: Motet 1532 (Verdelot)
!!!PWK: Masses, Book I
!!!RNB: Cadence finals: A,F
!!!YOR: Le Opere Complete, v. 1, p. 93
!!!YOO: Rome, Italy: Fratelli Scalera
!!!END: 1992//
!!!EED: John Miller
!!!YEC: Copyright 2000, John Miller
!!!YEN: United States of America
!!!YEM: Rights to all derivative electronic formats reserved.
!!!YEM: Refer to licensing agreement for further details.
!!!YEM: This file must be accompanied by the licensing agreement.
!!!YEM: A copy of the licensing agreement may be found at http://www.music-cog.ohio-state.edu/HumdrumDatabases/Palestrina/license.txt
!!!EMD: converted to Humdrum by Bret Aarden
